X: 4233
T: Bluestack Highland, The
R: strathspey
M: 4/4
K: Adorian
g>f|e<A e>f e<A e>f|g>fg>d B>GB>d|e<A e>f e<A e>f|(3gfe d>B A>gf>g|
e<A e>f e<A e>f|g>fg>d B>GB>d|e<A e>f e<A e>f|(3gfe d>B A2 A>B||
c>BA>f g>ed>c|B<G G>D G>Bd>B|c>BA>f g>ed>c|B<A ^G>B A2 A>B|
c>BA>f g>ed>c|B<G G>F G>Bd>c|(3BdB G>B (3AcA F>A|G>B (3AGF G2 g>f||

